packages/components/src/components/icon/cashier/ic-cashier-ngan-loung-dark.svg

<svg width="40" height="25" viewBox="0 0 40 25" fill="none" xmlns="http://www.w3.org/2000/svg">
<g opacity="0.997">
<path d="M5.9502 8.75C4.35807 8.75 3.06698 10.0411 3.06698 11.6332C3.07099 12.7186 3.65566 13.7187 4.5989 14.2556V13.1718C4.5866 12.7611 4.59239 12.3377 4.59632 12.0506C4.59773 11.9472 4.5989 11.8615 4.5989 11.8005V11.6968C5.16986 10.6535 6.26963 10.0107 7.45871 10.0244C7.80456 10.0287 8.14573 10.1026 8.46215 10.2418C7.95709 9.32631 6.99579 8.75569 5.9502 8.75Z" fill="white"/>
<path d="M4.87328 11.8509C5.40109 10.8943 6.39951 10.2922 7.49226 10.2721C9.0884 10.2959 10.3705 11.5957 10.3721 13.1922C10.3721 14.2411 9.80218 15.2074 8.8837 15.7141C9.02385 15.3981 9.09777 15.0566 9.10111 14.7107C9.1155 13.5213 8.47229 12.4212 7.42871 11.8509H7.3685C7.32226 11.8509 7.24888 11.8495 7.1555 11.8478C6.86384 11.8423 6.37716 11.8332 5.91351 11.8509H4.87328Z" fill="white"/>
<path d="M4.47184 14.5602L4.41164 14.5335C3.40819 13.7641 2.83623 13.0216 2.82285 11.7071C2.80947 11.383 2.84225 11.0585 2.91985 10.7438C2.04318 11.2445 1.52005 12.1934 1.5652 13.2022C1.5642 13.9595 1.86456 14.686 2.39973 15.2218C2.9349 15.7577 3.66106 16.0587 4.41833 16.0587C5.48465 16.0553 6.46869 15.4844 7.00052 14.5602H4.47184Z" fill="white"/>
<path d="M7.29815 12.1484V13.2254C7.31035 13.618 7.30476 14.0213 7.30084 14.3044C7.29938 14.4095 7.29815 14.4981 7.29815 14.5633V14.677C6.7379 15.7159 5.64883 16.3595 4.46845 16.3494C4.12293 16.3461 3.78176 16.2732 3.465 16.1354C4.09383 17.2759 5.41536 17.8459 6.67669 17.5205C7.93768 17.195 8.81837 16.0564 8.8167 14.754C8.82004 13.6746 8.23871 12.6778 7.29815 12.1484Z" fill="white"/>
<path fill-rule="evenodd" clip-rule="evenodd" d="M17.4012 13.0663C17.2366 12.9576 17.0439 12.9031 16.8232 12.9031C16.4971 12.9031 16.2194 13.0356 15.9886 13.2998C15.7585 13.5647 15.6431 13.9326 15.6431 14.4036C15.6431 14.903 15.7575 15.2608 15.9863 15.4773C16.2148 15.6937 16.4817 15.8017 16.786 15.8017C17.0055 15.8017 17.1814 15.7669 17.3145 15.6967C17.4477 15.6268 17.5614 15.5197 17.656 15.3759C17.6614 15.7632 17.6306 16.0322 17.5644 16.1827C17.452 16.4386 17.2145 16.5663 16.8519 16.5663C16.6225 16.5663 16.4546 16.5138 16.3475 16.4088C16.2907 16.3516 16.2495 16.2747 16.2241 16.1777L16.2107 16.1171H15.7301C15.7545 16.4064 15.8702 16.6185 16.077 16.7543C16.2837 16.8901 16.5385 16.958 16.8416 16.958C17.3864 16.958 17.7567 16.767 17.9531 16.385C18.0477 16.1991 18.0996 15.9519 18.1093 15.6438L18.1106 15.5388V12.9794H17.6744V13.3339C17.5818 13.2168 17.4905 13.1275 17.4012 13.0663ZM16.2265 13.7888C16.3492 13.4771 16.577 13.3212 16.9098 13.3212C17.1322 13.3212 17.3152 13.4051 17.459 13.5734C17.6029 13.7416 17.6744 13.9999 17.6744 14.3487C17.6744 14.5798 17.636 14.7822 17.559 14.9555C17.4202 15.2622 17.1814 15.4154 16.8416 15.4154C16.6242 15.4154 16.4512 15.3328 16.3225 15.1672C16.1937 15.0016 16.1295 14.7601 16.1295 14.443C16.1295 14.1735 16.1619 13.9554 16.2265 13.7888Z" fill="white"/>
<path fill-rule="evenodd" clip-rule="evenodd" d="M38.353 13.0663C38.1881 12.9576 37.9958 12.9031 37.7751 12.9031H37.7747C37.4489 12.9031 37.171 13.0356 36.9405 13.2998C36.7101 13.5647 36.595 13.9326 36.595 14.4036C36.595 14.903 36.7091 15.2608 36.9378 15.4773C37.1663 15.6937 37.4332 15.8017 37.7379 15.8017C37.957 15.8017 38.1329 15.7669 38.2661 15.6967C38.3992 15.6268 38.5133 15.5197 38.6079 15.3759C38.6129 15.7632 38.5825 16.0322 38.5159 16.1827C38.4039 16.4386 38.1664 16.5663 37.8038 16.5663C37.5744 16.5663 37.4061 16.5138 37.2991 16.4088C37.2422 16.3516 37.2011 16.2747 37.176 16.1777L37.1626 16.1171H36.6816C36.7061 16.4064 36.8218 16.6185 37.0285 16.7543C37.2352 16.8901 37.4901 16.958 37.7931 16.958C38.338 16.958 38.7086 16.767 38.9046 16.385C38.9992 16.1991 39.0514 15.9519 39.0608 15.6438L39.0625 15.5388V12.9794H38.6263V13.3339C38.5337 13.2168 38.4423 13.1275 38.353 13.0663ZM37.1783 13.7888C37.3008 13.4771 37.5285 13.3212 37.8617 13.3212H37.8613C38.0841 13.3212 38.2671 13.4051 38.4106 13.5734C38.5544 13.7416 38.6263 13.9999 38.6263 14.3487C38.6263 14.5798 38.5875 14.7822 38.5106 14.9555C38.3721 15.2622 38.1329 15.4154 37.7931 15.4154C37.576 15.4154 37.4031 15.3328 37.2743 15.1672C37.1456 15.0016 37.0813 14.7601 37.0813 14.443C37.0813 14.1735 37.1134 13.9554 37.1783 13.7888Z" fill="white"/>
<path fill-rule="evenodd" clip-rule="evenodd" d="M32.8502 13.2342C32.5996 12.9927 32.2932 12.8717 31.9303 12.8717C31.5259 12.8717 31.2035 13.0118 30.9633 13.2921C30.7235 13.5727 30.6034 13.949 30.6034 14.4223C30.6034 14.8635 30.7175 15.2154 30.945 15.4773C31.1727 15.7392 31.4801 15.8699 31.8675 15.8699C32.3317 15.8699 32.6742 15.7221 32.895 15.4261C33.1157 15.1301 33.2261 14.7551 33.2261 14.3012C33.2261 13.8316 33.101 13.4761 32.8502 13.2342ZM31.2868 13.6155C31.4179 13.3948 31.6283 13.2844 31.9173 13.2844C32.2431 13.2844 32.4729 13.4138 32.606 13.6731C32.6899 13.838 32.7321 14.0517 32.7321 14.3143C32.7321 14.6049 32.6739 14.8692 32.5571 15.1067C32.4408 15.3441 32.2257 15.4629 31.9123 15.4629C31.6266 15.4629 31.4179 15.3629 31.2868 15.1632C31.1553 14.9635 31.0894 14.714 31.0894 14.4143C31.0894 14.1025 31.1553 13.8363 31.2868 13.6155Z" fill="white"/>
<path fill-rule="evenodd" clip-rule="evenodd" d="M20.7333 13.074C20.5265 12.9479 20.2576 12.885 19.9265 12.885C19.6412 12.885 19.39 12.9529 19.1739 13.0887C18.9575 13.2245 18.8448 13.466 18.8361 13.8129H19.2776C19.295 13.6674 19.3328 13.558 19.3906 13.4844C19.494 13.3513 19.6689 13.2847 19.9161 13.2847C20.1299 13.2847 20.2941 13.3209 20.4088 13.3934C20.5235 13.4664 20.5811 13.5834 20.5811 13.7446C20.5811 13.8233 20.5704 13.8838 20.5493 13.9259C20.5125 14.0029 20.4399 14.0484 20.3312 14.0624L19.577 14.1571C19.3124 14.1905 19.0986 14.2788 18.9358 14.4223C18.7729 14.5661 18.6916 14.7685 18.6916 15.0294C18.6916 15.2679 18.7742 15.4662 18.9398 15.6248C19.1053 15.7833 19.3187 15.8626 19.5796 15.8626C19.797 15.8626 19.9957 15.8161 20.1763 15.7231C20.3566 15.6305 20.4951 15.5207 20.5914 15.3946C20.6072 15.507 20.6343 15.5937 20.6727 15.6549C20.7463 15.7706 20.8647 15.8285 21.0279 15.8285C21.0942 15.8285 21.1467 15.8258 21.1851 15.8204C21.2239 15.8151 21.2798 15.802 21.3534 15.781V15.4311C21.3236 15.4365 21.2955 15.4405 21.2694 15.4431C21.243 15.4458 21.2196 15.4472 21.1982 15.4472C21.1336 15.4472 21.0912 15.4321 21.0711 15.4023C21.051 15.3726 21.041 15.3331 21.041 15.2839V13.6627C21.041 13.3965 20.9383 13.2001 20.7333 13.074ZM20.5212 14.3621L20.5677 14.3353V14.7163C20.5677 15.0073 20.4362 15.2167 20.1737 15.3445C20.0178 15.4217 19.8566 15.4602 19.69 15.4602C19.5535 15.4602 19.4351 15.4207 19.3355 15.3418C19.2355 15.2629 19.1856 15.1552 19.1856 15.0187C19.1856 14.8384 19.2582 14.707 19.4037 14.6243C19.4773 14.5825 19.5823 14.5501 19.7191 14.5273L19.79 14.5166L20.0767 14.4798C20.1636 14.4695 20.2533 14.4521 20.3443 14.4273C20.4128 14.4089 20.4717 14.3872 20.5212 14.3621Z" fill="white"/>
<path d="M28.2751 14.8217V12.9533H27.7918V14.8665C27.7918 15.1063 27.8309 15.298 27.9102 15.4418C28.0554 15.7101 28.3283 15.8438 28.7297 15.8438C28.9872 15.8438 29.2063 15.7703 29.3866 15.6231C29.4599 15.5642 29.5231 15.4947 29.5769 15.4144L29.6154 15.3525L29.61 15.7676H30.0569V12.9533H29.5836V14.3357C29.5836 14.6106 29.5515 14.8267 29.4866 14.9846C29.3675 15.2789 29.1431 15.4261 28.814 15.4261C28.5842 15.4261 28.4277 15.3418 28.3434 15.1736C28.3056 15.0976 28.2835 15.0036 28.2771 14.8912L28.2751 14.8217Z" fill="white"/>
<path d="M14.4734 15.0347L12.5234 11.9073H11.906V15.7676H12.405V12.6432L14.3838 15.7676H14.9698V11.9073H14.4734V15.0347Z" fill="white"/>
<path d="M23.9944 13.3082C23.8543 13.0295 23.5844 12.8901 23.185 12.8901C23.0027 12.8901 22.8375 12.9262 22.6883 12.9978C22.5605 13.0593 22.4388 13.155 22.323 13.2847L22.2652 13.3526V12.9533H21.816V15.7676H22.2889V14.2935C22.2889 14.1096 22.301 13.9681 22.3244 13.8687C22.3481 13.7701 22.3993 13.6741 22.4782 13.5811C22.5762 13.4657 22.6903 13.3884 22.8197 13.35C22.8917 13.3272 22.9836 13.3158 23.0957 13.3158C23.3165 13.3158 23.469 13.4035 23.5529 13.5787C23.5964 13.6687 23.6215 13.7831 23.6275 13.9223L23.6292 13.9938V15.7676H24.1102V13.9624C24.1102 13.6784 24.0714 13.4603 23.9944 13.3082Z" fill="white"/>
<path d="M25.3953 15.3077V11.9073H24.8718V15.7676H27.3503V15.3077H25.3953Z" fill="white"/>
<path d="M35.9668 13.3082C35.8267 13.0295 35.5568 12.8901 35.1574 12.8901C34.9751 12.8901 34.8099 12.9262 34.6607 12.9978C34.5333 13.0593 34.4112 13.155 34.2951 13.2847L34.2376 13.3526V12.9533H33.7884V15.7676H34.2613V14.2935C34.2613 14.1096 34.2734 13.9681 34.2968 13.8687C34.3202 13.7701 34.3717 13.6741 34.4506 13.5811C34.5486 13.4657 34.6627 13.3884 34.7921 13.35C34.8641 13.3272 34.956 13.3158 35.0681 13.3158C35.2889 13.3158 35.4414 13.4035 35.5253 13.5787C35.5688 13.6687 35.5939 13.7831 35.5999 13.9223L35.6016 13.9938V15.7676H36.0826V13.9624C36.0826 13.6784 36.0438 13.4603 35.9668 13.3082Z" fill="white"/>
</g>
</svg>

<svg width="40" height="25" fill="none" xmlns="http://www.w3.org/2000/svg"><g opacity=".997" fill="#fff"><path d="M5.95 8.75a2.884 2.884 0 00-2.883 2.883 3.03 3.03 0 001.532 2.623v-1.084c-.012-.41-.007-.834-.003-1.121l.003-.25v-.104a3.217 3.217 0 012.86-1.673 2.57 2.57 0 011.003.218A2.887 2.887 0 005.95 8.75z"/><path d="M4.873 11.85a3.055 3.055 0 012.62-1.578 2.923 2.923 0 012.88 2.92 2.88 2.88 0 01-1.49 2.522c.14-.316.215-.657.218-1.003a3.214 3.214 0 00-1.672-2.86h-.06l-.213-.003a22.342 22.342 0 00-1.242.003h-1.04zM4.472 14.56l-.06-.027c-1.004-.769-1.576-1.511-1.59-2.826-.013-.324.02-.649.098-.963-.877.5-1.4 1.45-1.355 2.458a2.853 2.853 0 002.853 2.857 2.99 2.99 0 002.583-1.499H4.47z"/><path d="M7.298 12.148v1.077c.012.393.007.796.003 1.08a21.09 21.09 0 00-.003.258v.114a3.184 3.184 0 01-2.83 1.672 2.577 2.577 0 01-1.003-.214 2.854 2.854 0 005.352-1.381 2.98 2.98 0 00-1.519-2.606z"/><path fill-rule="evenodd" clip-rule="evenodd" d="M17.401 13.066a1.025 1.025 0 00-.578-.163c-.326 0-.604.133-.834.397-.23.265-.346.633-.346 1.104 0 .499.114.857.343 1.073.229.217.496.325.8.325.22 0 .395-.035.528-.105a.925.925 0 00.342-.321c.005.387-.025.656-.092.807-.112.256-.35.383-.712.383-.23 0-.397-.052-.505-.157a.5.5 0 01-.123-.231l-.013-.06h-.48c.024.288.14.5.346.636.207.136.461.204.765.204.544 0 .915-.191 1.111-.573.095-.186.147-.433.156-.741l.002-.105v-2.56h-.437v.355a1.294 1.294 0 00-.273-.268zm-1.174.723c.122-.312.35-.468.683-.468a.69.69 0 01.549.252c.144.169.215.427.215.776 0 .23-.038.433-.115.607-.139.306-.378.46-.717.46a.623.623 0 01-.52-.249c-.128-.165-.192-.407-.192-.724 0-.27.032-.488.097-.654zM38.353 13.066a1.025 1.025 0 00-.578-.163c-.326 0-.604.133-.834.397-.23.265-.346.633-.346 1.104 0 .499.114.857.343 1.073.228.217.495.325.8.325.219 0 .395-.035.528-.105a.927.927 0 00.342-.321c.005.387-.025.656-.092.807-.112.256-.35.383-.712.383-.23 0-.398-.052-.505-.157a.496.496 0 01-.123-.231l-.013-.06h-.481c.024.288.14.5.346.636.207.136.462.204.765.204.545 0 .916-.191 1.112-.573.094-.186.146-.433.156-.741l.002-.105v-2.56h-.437v.355a1.294 1.294 0 00-.273-.268zm-1.175.723c.123-.312.35-.468.684-.468a.69.69 0 01.549.252c.143.169.215.427.215.776 0 .23-.038.433-.115.607-.139.306-.378.46-.718.46a.623.623 0 01-.519-.249c-.128-.165-.193-.407-.193-.724 0-.27.032-.488.097-.654zM32.85 13.234a1.275 1.275 0 00-.92-.362c-.404 0-.727.14-.967.42-.24.28-.36.657-.36 1.13 0 .441.114.793.342 1.055.228.262.535.393.922.393.465 0 .807-.148 1.028-.444.22-.296.331-.67.331-1.125 0-.47-.125-.825-.376-1.067zm-1.563.382c.13-.221.341-.332.63-.332.326 0 .556.13.689.39.084.164.126.378.126.64 0 .29-.058.555-.175.793-.116.237-.331.356-.645.356-.285 0-.494-.1-.625-.3-.132-.2-.198-.449-.198-.749 0-.312.066-.578.198-.798zM20.733 13.074c-.207-.126-.475-.189-.806-.189-.286 0-.537.068-.753.204-.216.136-.33.377-.338.724h.442a.656.656 0 01.113-.329c.103-.133.278-.2.525-.2.214 0 .378.037.493.11.114.072.172.19.172.35 0 .08-.01.14-.032.182-.037.077-.11.122-.218.136l-.754.095a1.164 1.164 0 00-.641.265c-.163.144-.244.346-.244.607a.79.79 0 00.248.596.887.887 0 00.64.238c.217 0 .416-.047.596-.14.18-.093.32-.202.415-.328.016.112.043.199.082.26.073.116.192.174.355.174.066 0 .119-.003.157-.009a1.32 1.32 0 00.168-.039v-.35a1.066 1.066 0 01-.155.016c-.064 0-.107-.015-.127-.045a.208.208 0 01-.03-.118v-1.621c0-.267-.103-.463-.308-.589zm-.212 1.288l.047-.027v.381a.65.65 0 01-.394.629 1.077 1.077 0 01-.484.115.554.554 0 01-.355-.118.39.39 0 01-.15-.323c0-.18.073-.312.219-.395a.98.98 0 01.315-.097l.071-.01.287-.037c.087-.01.176-.028.267-.053a.92.92 0 00.177-.065z"/><path d="M28.275 14.822v-1.869h-.483v1.914c0 .24.039.431.118.575.145.268.418.402.82.402.257 0 .476-.074.657-.22a.928.928 0 00.19-.21l.038-.062-.005.416h.447v-2.815h-.473v1.383c0 .275-.032.49-.097.649-.12.294-.344.441-.673.441-.23 0-.386-.084-.47-.252a.725.725 0 01-.067-.283l-.002-.07zM14.473 15.035l-1.95-3.128h-.617v3.86h.499v-3.124l1.979 3.125h.586v-3.86h-.497v3.127zM23.994 13.308c-.14-.278-.41-.418-.809-.418-.182 0-.348.036-.497.108-.127.061-.25.157-.365.287l-.058.068v-.4h-.449v2.815h.473v-1.475c0-.183.012-.325.035-.424a.699.699 0 01.154-.288.711.711 0 01.342-.231.932.932 0 01.276-.034c.22 0 .373.087.457.263.043.09.069.204.075.343l.001.072v1.774h.481v-1.806c0-.284-.039-.502-.116-.654zM25.395 15.308v-3.4h-.523v3.86h2.478v-.46h-1.955zM35.967 13.308c-.14-.278-.41-.418-.81-.418-.182 0-.347.036-.496.108-.128.061-.25.157-.366.287l-.057.068v-.4h-.45v2.815h.473v-1.475c0-.183.012-.325.036-.424a.695.695 0 01.154-.288.711.711 0 01.341-.231.932.932 0 01.276-.034c.22 0 .373.087.457.263.044.09.069.204.075.343l.002.072v1.774h.48v-1.806c0-.284-.038-.502-.115-.654z"/></g></svg>
